X:1
T:Lord Rendal
M:3/4
L:1/4
K:C
 D| G G G| B2 B| A G A| G2 D| G G G| B B3/2 B/2| A G A| G3| g3/2 g/2d/2 d/2|\
 g3/2 g/2 d| B A G| d2 d/2d/2| d e d| d e d| B B A| G2||
